packages/ui-icons/svg/Line/text-subscript.svg

<svg viewBox="0 0 1920 1920" version="1.1" xmlns="http://www.w3.org/2000/svg">
    <path d="M1543.86059,983 C1642.5128,983 1733.91319,1043.3435 1771.13012,1133.243 C1807.93656,1222.18467 1783.71819,1321.6625 1706.27415,1399.11017 C1615.96838,1489.42017 1493.23463,1600.11833 1417.84299,1667.16667 L1417.84299,1667.16667 L1783.30771,1667.16667 L1783.30771,1804 L1304.41346,1804 C1266.64923,1804 1236,1773.34933 1236,1735.58333 L1236,1735.58333 L1236,1675.65033 C1236,1655.94633 1244.6201,1637.06333 1259.53423,1624.06417 C1261.72346,1622.1485 1475.99443,1435.91833 1609.53751,1302.369 C1648.12271,1263.782 1660.3003,1223.41617 1644.70204,1185.51333 C1628.69328,1146.7895 1587.23473,1119.83333 1543.86059,1119.83333 C1443.70328,1119.83333 1359.9652,1228.34217 1359.00741,1229.57367 L1359.00741,1229.57367 L1249.68269,1147.2 C1254.74529,1140.49517 1374.87933,983 1543.86059,983 Z M1373,162 L1373,298.8 L825.888889,298.8 L825.888889,1530 L689.111111,1530 L689.111111,298.8 L142,298.8 L142,162 L1373,162 Z" stroke="none" stroke-width="1" fill-rule="evenodd"/>
</svg>

<svg viewBox="0 0 1920 1920" version="1.1" xmlns="http://www.w3.org/2000/svg">
    <path d="M142 162h1231v136.8H825.889V1530H689.11V298.8H142V162zm1564.274 1237.11c-90.306 90.31-213.04 201.008-288.431 268.057h365.465V1804h-478.895c-37.764 0-68.413-30.65-68.413-68.417v-59.933c0-19.704 8.62-38.587 23.534-51.586 2.19-1.916 216.46-188.146 350.004-321.695 38.585-38.587 50.762-78.953 35.164-116.856-16.009-38.723-57.467-65.68-100.841-65.68-100.158 0-183.896 108.51-184.854 109.74l-109.324-82.373c5.062-6.705 125.196-164.2 294.178-164.2 98.652 0 190.052 60.343 227.27 150.243 36.806 88.942 12.587 188.42-64.857 265.867z" stroke="none" stroke-width="1" fill-rule="evenodd"/>
</svg>
